X:2
T:Dear Tobacco
M:2/2
L:1/4
K:Edor
|: B E E F | G/F/E/D/ F2 | B E E c | d c B A
| B E E F | G/F/E/D/ F2 | D> E D c | d c B A :|
|: B e e f | g/f/e/d/ e2 | B e e f | g e f d |
| B d d e | d/c/B/c/ d2 | F A A F | d c B A :|
